X: 20539
T: John McGinley's
R: reel
M: 4/4
K: Adorian
EAA(B cG)AG|EAA(G EG)EC|EAA(B cA)Bc|1 d/d/(d g)(e dc)AG:|2 d/d/(d g)(e dc)A(a||
gc)e(c Ac)[cG]e|gce(g ag)ea|gce(c Ac)GE|GAc(d "4"ed)de|
gce(c Gc)[cG]e|gce(g ag)ed|c/c/(c g)c Gcg(c|"4"ed)ce dcAG||

